X:1
T:Minuet in G Minor
T:Minuet in G Minor
T:Anna Magdalena Notebook
T:J. S. Bach
T:Arreglo: Edle Julve
C:J. S. Bach
Z:Edle Julve
%%score 1 2 3
L:1/8
Q:1/4=80
M:3/4
K:Bb
V:1 treble nm="Violín" snm="Vln."
V:2 treble nm="Violín" snm="Vln."
V:3 bass nm="Violonchelo" snm="Vc."
V:1
!mf! (b2 a2 g2 | a2) ud2 ud2 | g2!<(! (GA Bc!<)! | d6) | e2!>(! (fe dc!>)! | d2) (ed cB | %6
 c2) (dc Bc) | PA6 |!mf! (b2 a2 g2 | a2) ud2 ud2 |!<(! g2 (GA B)c!<)! | d6 |!f! Pf2 (gf ed) | %13
 e2 (fe dc |!>(! d2) g2 Pc2!>)! | B6 :|!mf! d2 Bc d=e | f2 g2 a2 | b2 (ga bg) | a2 (ga f2) | %20
 (FG AB cd) | e2 d2 c2 | f2 B2 A2 | B6 | G2 (dc d2) | G2 (ed e2) | Gd ^Fc GB | A4 z2 | %28
 (D=E) ^FG AB | c2 B2 A2 | (PBc/d/) G2 ^F2 |!>(! G6!>)! |] %32
V:2
 D6 | C6 | B,6 | D2 (dc BA | B4) ((A2 | B4)) (G2 | A2) ^F2 G2 | D2 (dc BA | D6) | C6 | B,6 | %11
 D2 (dc =BA | d4) G2 | c2 A2 D2 | B2 E2 A2 | F6 :| B6 | A2 G2 F2 | G2 =e2 c2 | f4 z2 | F6 | %21
 c2 B2 G2 | F2 D2 F2 | D6 |!pp!!<(! D6!<)! | G6 | D2 A,2 D2 | ^F4 z2 |!<(! A,6!<)! | E2 G2 E2 | %30
 B,4 D2 | D6 |] %32
V:3
 G,6 | F,6 | E,6 | D,6 | G,4 A,2 | B,4 G,2 | C,2 D,2 E,2 | D,6 | G,6 | F,6 | E,6 | D,6 | %12
 =B,,4 G,,2 | E,2 F,2 G,2 | D,2 E,2 F,2 | D6 :| D,6 | F,2 G,2 A,2 | G,6 | F,4 z2 | A,2 G,2 F,2 | %21
 G,2 F,2 E,2 | D,2 E,2 F,2 | B,,2!mf! (D2 C2) |!pp!!<(! =B,,6!<)! | C,6 | B,2 A,2 G,2 | %27
 D2 (A,G, ^F,=E, | D,6) | _E,2 D,2 C,2 | B,,2 C,2 D,2 | G,2 G,,4 |] %32

